dist/img/icons/icon-form.svg

<svg width="235" height="176" viewBox="0 0 235 176" fill="none" xmlns="http://www.w3.org/2000/svg">
<path d="M194.115 25H40.0933C31.2198 25 24 32.2198 24 41.0947V133.905C24 142.78 31.2198 150 40.0933 150H194.115C202.989 150 210.209 142.78 210.209 133.905V41.0947C210.209 32.2198 202.989 25 194.115 25V25ZM204.679 133.905C204.679 139.73 199.939 144.469 194.115 144.469H40.0933C34.27 144.469 29.5306 139.73 29.5306 133.905V41.0947C29.5306 35.27 34.27 30.5306 40.0933 30.5306H194.115C199.939 30.5306 204.679 35.27 204.679 41.0947V133.905Z" fill="#DADAE4"/>
<path d="M106.78 47.1221H42.6219C41.0947 47.1221 39.8558 48.3595 39.8558 49.8881V67.5867C39.8558 69.114 42.4889 67.5867 42.4889 67.5867C42.4889 67.5867 45.3879 69.114 45.3879 67.5867V52.6527H104.016V120.131H45.3879V67.5867C45.3879 66.0595 42.4889 67.5867 42.4889 67.5867C42.4889 67.5867 39.8558 66.0595 39.8558 67.5867V122.896C39.8558 124.423 41.0947 125.662 42.6219 125.662H106.78C108.308 125.662 109.547 124.423 109.547 122.896V49.8881C109.547 48.3595 108.308 47.1221 106.78 47.1221Z" fill="#DADAE4"/>
<path d="M192.328 53.5352H123.006C121.479 53.5352 120.24 54.774 120.24 56.3012C120.24 57.8284 121.479 59.0658 123.006 59.0658H192.328C193.855 59.0658 195.092 57.8284 195.092 56.3012C195.092 54.774 193.855 53.5352 192.328 53.5352Z" fill="#DADAE4"/>
<path d="M192.327 73.5977H176.841C175.314 73.5977 174.076 74.8351 174.076 76.3623C174.076 77.8895 175.314 79.1283 176.841 79.1283H192.327C193.855 79.1283 195.092 77.8895 195.092 76.3623C195.092 74.8351 193.855 73.5977 192.327 73.5977Z" fill="#DADAE4"/>
<path d="M123.006 79.1283H165.778C167.305 79.1283 168.544 77.8895 168.544 76.3623C168.544 74.8351 167.305 73.5977 165.778 73.5977H123.006C121.479 73.5977 120.24 74.8351 120.24 76.3623C120.24 77.8895 121.479 79.1283 123.006 79.1283Z" fill="#DADAE4"/>
<path d="M192.328 93.6602H123.006C121.479 93.6602 120.24 94.8976 120.24 96.4248C120.24 97.952 121.479 99.1908 123.006 99.1908H192.328C193.855 99.1908 195.092 97.952 195.092 96.4248C195.092 94.8976 193.855 93.6602 192.328 93.6602Z" fill="#DADAE4"/>
<path d="M160.617 113.723H123.006C121.479 113.723 120.24 114.96 120.24 116.487C120.24 118.014 121.479 119.253 123.006 119.253H160.617C162.144 119.253 163.382 118.014 163.382 116.487C163.382 114.96 162.144 113.723 160.617 113.723Z" fill="#DADAE4"/>
<path d="M53 120.321C53 121.801 54.2388 123 55.766 123C57.2933 123 58.5321 121.801 58.5321 120.321C58.5321 103.132 67.376 100.521 75.0007 100.521C82.6254 100.521 91.4693 105.692 91.4693 120.321C91.4693 121.801 92.7067 123 94.234 123C95.7612 123 97 121.801 97 120.321C97 106.972 90.5869 101.126 84.9596 97.8408C90.5869 94.5558 94.3587 88.5778 94.3587 81.76C94.3587 71.4163 85.6742 63 75.0007 63C64.3258 63 55.6413 71.4163 55.6413 81.76C55.6413 88.5778 59.4146 94.5558 65.0418 97.8408C59.4146 101.126 53 104.412 53 120.321ZM61.1734 81.76C61.1734 74.3708 67.376 68.3598 75.0007 68.3598C82.6254 68.3598 88.8281 74.3708 88.8281 81.76C88.8281 89.1492 82.6254 95.1602 75.0007 95.1602C67.376 95.1602 61.1734 89.1492 61.1734 81.76Z" fill="#DADAE4"/>
<path d="M229.566 162.661C229.566 164.785 228.681 166.733 227.264 168.15C225.848 169.566 223.9 170.452 221.775 170.452H210V175.233H221.864C225.317 175.233 228.415 173.816 230.717 171.603C233.019 169.301 234.347 166.202 234.347 162.749V150H229.566V162.661Z" fill="#DADAE4"/>
<path d="M7.08286 168.061C5.66629 166.645 4.78093 164.697 4.78093 162.572V150H0V162.661C0 166.114 1.41657 169.212 3.62997 171.514C6.02043 173.728 9.11918 175.144 12.5721 175.144H24.4359V170.363H12.5721C10.4472 170.363 8.49943 169.478 7.08286 168.061Z" fill="#DADAE4"/>
<path d="M230.806 3.62997C228.504 1.32804 225.405 0 221.952 0H210V4.78093H221.864C223.989 4.78093 225.936 5.66629 227.353 7.08286C228.77 8.49943 229.655 10.4472 229.655 12.5721V25.2327H234.436V12.4835C234.436 9.03065 233.019 5.93189 230.806 3.62997Z" fill="#DADAE4"/>
<path d="M3.62997 3.62997C1.32804 5.9319 0 9.03065 0 12.4835V25.1442H4.78093V12.4835C4.78093 10.3587 5.66629 8.4109 7.08286 6.99433C8.49943 5.57775 10.4472 4.6924 12.5721 4.6924H24.4359V0H12.4835C9.03065 0 5.9319 1.41657 3.62997 3.62997Z" fill="#DADAE4"/>
</svg>

<svg width="235" height="176" viewBox="0 0 235 176" fill="none" xmlns="http://www.w3.org/2000/svg"><path d="M194.115 25H40.093C31.22 25 24 32.22 24 41.095v92.81C24 142.78 31.22 150 40.093 150h154.022c8.874 0 16.094-7.22 16.094-16.095v-92.81c0-8.875-7.22-16.095-16.094-16.095zm10.564 108.905c0 5.825-4.74 10.564-10.564 10.564H40.093c-5.823 0-10.562-4.739-10.562-10.564v-92.81c0-5.825 4.739-10.564 10.562-10.564h154.022c5.824 0 10.564 4.739 10.564 10.564v92.81z" fill="#DADAE4"/><path d="M106.78 47.122H42.622a2.766 2.766 0 0 0-2.766 2.766v17.699c0 1.527 2.633 0 2.633 0s2.899 1.527 2.899 0V52.653h58.628v67.478H45.388V67.587c0-1.528-2.9 0-2.9 0s-2.632-1.528-2.632 0v55.309a2.767 2.767 0 0 0 2.766 2.766h64.158a2.767 2.767 0 0 0 2.767-2.766V49.888a2.766 2.766 0 0 0-2.767-2.766zM192.328 53.535h-69.322a2.765 2.765 0 0 0 0 5.53h69.322a2.765 2.765 0 1 0 0-5.53zM192.327 73.598h-15.486a2.765 2.765 0 1 0 0 5.53h15.486a2.765 2.765 0 0 0 0-5.53zM123.006 79.128h42.772a2.765 2.765 0 0 0 0-5.53h-42.772a2.765 2.765 0 1 0 0 5.53zM192.328 93.66h-69.322a2.765 2.765 0 1 0 0 5.53h69.322a2.765 2.765 0 0 0 0-5.53zM160.617 113.723h-37.611a2.765 2.765 0 1 0 0 5.53h37.611a2.766 2.766 0 0 0 0-5.53z" fill="#DADAE4"/><path d="M53 120.321c0 1.48 1.239 2.679 2.766 2.679s2.766-1.199 2.766-2.679c0-17.189 8.844-19.8 16.469-19.8 7.624 0 16.468 5.171 16.468 19.8 0 1.48 1.238 2.679 2.765 2.679 1.527 0 2.766-1.199 2.766-2.679 0-13.349-6.413-19.195-12.04-22.48 5.627-3.285 9.399-9.263 9.399-16.081C94.359 71.416 85.674 63 75 63c-10.675 0-19.36 8.416-19.36 18.76 0 6.818 3.774 12.796 9.4 16.08C59.416 101.127 53 104.413 53 120.322zm8.173-38.561c0-7.39 6.203-13.4 13.828-13.4 7.624 0 13.827 6.01 13.827 13.4 0 7.39-6.203 13.4-13.827 13.4-7.625 0-13.828-6.01-13.828-13.4zM229.566 162.661c0 2.124-.885 4.072-2.302 5.489-1.416 1.416-3.364 2.302-5.489 2.302H210v4.781h11.864c3.453 0 6.551-1.417 8.853-3.63 2.302-2.302 3.63-5.401 3.63-8.854V150h-4.781v12.661zM7.083 168.061c-1.417-1.416-2.302-3.364-2.302-5.489V150H0v12.661c0 3.453 1.417 6.551 3.63 8.853 2.39 2.214 5.49 3.63 8.942 3.63h11.864v-4.781H12.572c-2.125 0-4.073-.885-5.49-2.302zM230.806 3.63C228.504 1.328 225.405 0 221.952 0H210v4.78h11.864c2.125 0 4.072.886 5.489 2.303 1.417 1.416 2.302 3.364 2.302 5.49v12.66h4.781v-12.75c0-3.452-1.417-6.551-3.63-8.853zM3.63 3.63C1.328 5.932 0 9.03 0 12.484v12.66h4.78v-12.66c0-2.125.886-4.073 2.303-5.49 1.416-1.416 3.364-2.302 5.49-2.302h11.863V0H12.483C9.031 0 5.932 1.417 3.63 3.63z" fill="#DADAE4"/></svg>
